X: 43395
T: Wye Valley Rambles
R: hornpipe
M: 4/4
K: Dmajor
|:"D" (3ABA F>E D>E F>D|"Em"E>D E>F "A7"G>F E2|"Em"e>d c>B "A7"A>B (3cBA|e8|
"D"(3ABA F>E D>E F>D|"Em"E>F G>A"A7"B3 c|"D"d>c B>A "Bm"B>A F>A|
[1 "Em" (3BAG "A7"E>F "D" D3 A:|2 "Em"(3BAG "A7"E>F "D"D4||
|:(3ABc|"D"d>A F>A d>A F>A|d>c B>A B>A F>A|"G"B>d "D"A>d "Em"G>d "D"F>d|"Em"e>d c>B "A7"A3 A|
"D"D>E F>D "Em"E>F G>E|"D"F>G (3AGF "G"B3 c|"D"(3dcd A>F "Em"(3BAB G>E|"A7"A>G E>F "D"D2:|

